svg/24/adjust-vertical--filled.svg

<svg width="24" height="24" viewBox="0 0 24 24" fill="currentColor" xmlns="http://www.w3.org/2000/svg"><path d="M4 8.75C4 10.5642 5.28832 12.0775 7 12.425L7 21.25C7 21.6642 7.33579 22 7.75 22C8.16421 22 8.5 21.6642 8.5 21.25L8.5 12.425C10.2117 12.0775 11.5 10.5642 11.5 8.75C11.5 6.93578 10.2117 5.42247 8.5 5.07501L8.5 2.75C8.5 2.33578 8.16421 2 7.75 2C7.33579 2 7 2.33578 7 2.75L7 5.07501C5.28832 5.42247 4 6.93578 4 8.75Z"/><path d="M12.5 15.25C12.5 13.4358 13.7883 11.9225 15.5 11.575V2.75C15.5 2.33579 15.8358 2 16.25 2C16.6642 2 17 2.33579 17 2.75V11.575C18.7117 11.9225 20 13.4358 20 15.25C20 17.0642 18.7117 18.5775 17 18.925L17 21.25C17 21.6642 16.6642 22 16.25 22C15.8358 22 15.5 21.6642 15.5 21.25L15.5 18.925C13.7883 18.5775 12.5 17.0642 12.5 15.25Z"/></svg>

<svg xmlns="http://www.w3.org/2000/svg" width="24" height="24" fill="currentColor" viewBox="0 0 24 24">
  <path d="M4 8.75a3.751 3.751 0 0 0 3 3.675v8.825a.75.75 0 0 0 1.5 0v-8.825a3.751 3.751 0 0 0 0-7.35V2.75a.75.75 0 1 0-1.5 0v2.325A3.75 3.75 0 0 0 4 8.75Zm8.5 6.5a3.751 3.751 0 0 1 3-3.675V2.75a.75.75 0 0 1 1.5 0v8.825a3.751 3.751 0 0 1 0 7.35v2.325a.75.75 0 0 1-1.5 0v-2.325a3.751 3.751 0 0 1-3-3.675Z"/>
</svg>
